X: 25
T: JeLanguis
M: 6/4
L: 1/8
K:C clef=treble-8 octave=1 
V:1
C,12| E,12| G,12| A,12| G,12| 
G,12| G,12| A,12| C12| B,12| 
A,12| G,12| F,12| E,12| E,12| 
C,12| C,12| E,12| G,12| G,12|
A,12| G,12| G,12| C,12| E,12| 
G,12| A,12| G,12| F,12| E,12| 
D,12| C,12| C,12| C12| C12| 
B,12| D12| B,12| A,12| G,12|
G,12| A,12| G,12| G,12| G,12|

